src/icons/rabbitmq.svg

<?xml version="1.0" encoding="UTF-8"?>
<svg xmlns="http://www.w3.org/2000/svg" xmlns:xlink="http://www.w3.org/1999/xlink" width="30.2336" height="32" viewBox="0 0 30.2336 32" version="1.1">
<g id="surface1">
<path style=" stroke:none;fill-rule:nonzero;fill:rgb(100%,40.000001%,0%);fill-opacity:1;" d="M 28.984375 12.789062 L 18.9375 12.789062 C 18.433594 12.789062 18.023438 12.378906 18.023438 11.875 L 18.023438 1.40625 C 18.023438 0.628906 17.394531 0 16.621094 0 L 13.03125 0 C 12.257812 0 11.628906 0.628906 11.628906 1.40625 L 11.628906 11.8125 C 11.628906 12.351562 11.191406 12.792969 10.652344 12.792969 L 7.359375 12.808594 C 6.816406 12.8125 6.371094 12.371094 6.375 11.828125 L 6.394531 1.40625 C 6.394531 0.628906 5.765625 0 4.988281 0 L 1.40625 0 C 0.628906 0 0.00390625 0.628906 0.00390625 1.40625 L 0.00390625 30.726562 C 0.00390625 31.414062 0.558594 31.972656 1.25 31.972656 L 28.984375 31.972656 C 29.671875 31.972656 30.230469 31.414062 30.230469 30.726562 L 30.230469 14.035156 C 30.230469 13.347656 29.671875 12.789062 28.984375 12.789062 Z M 24.273438 23.796875 C 24.273438 24.699219 23.539062 25.433594 22.636719 25.433594 L 19.804688 25.433594 C 18.902344 25.433594 18.167969 24.699219 18.167969 23.796875 L 18.167969 20.964844 C 18.167969 20.0625 18.902344 19.328125 19.804688 19.328125 L 22.636719 19.328125 C 23.539062 19.328125 24.273438 20.0625 24.273438 20.964844 Z M 24.273438 23.796875 "/>
</g>
</svg>

<svg role="img" viewBox="0 0 30.234 32" xmlns="http://www.w3.org/2000/svg"><path d="M28.984 12.79H18.937a.915.915 0 0 1-.914-.915V1.406C18.023.63 17.395 0 16.621 0h-3.59c-.773 0-1.402.629-1.402 1.406v10.407a.98.98 0 0 1-.977.98l-3.293.016a.977.977 0 0 1-.984-.98l.02-10.423C6.395.63 5.765 0 4.988 0H1.406C.63 0 .004.629.004 1.406v29.32c0 .688.555 1.247 1.246 1.247h27.734c.688 0 1.246-.559 1.246-1.246V14.035c0-.687-.558-1.246-1.246-1.246m-4.71 11.007a1.64 1.64 0 0 1-1.637 1.637h-2.832a1.639 1.639 0 0 1-1.637-1.637v-2.832c0-.902.734-1.637 1.637-1.637h2.832c.902 0 1.636.735 1.636 1.637Zm0 0" style="stroke:none;fill-rule:nonzero;fill:rgb(100%,40.000001%,0%);fill-opacity:1"/></svg>
